symbols/web/camera_outdoor/materialsymbolsrounded/camera_outdoor_wght600grad200fill1_24px.svg

<svg xmlns="http://www.w3.org/2000/svg" height="24" width="24"><path d="M6.1 22.025q-1.275 0-2.175-.888-.9-.887-.9-2.187V10.1q0-.725.325-1.375t.9-1.1l5.9-4.425q.825-.625 1.85-.625 1.025 0 1.85.625l5.9 4.425q.575.425.9 1.087.325.663.325 1.388v.825h-7.3q-.8 0-1.387.587-.588.588-.588 1.388v4.075q0 .8.588 1.387.587.588 1.387.588h7.3v3.075Zm7.575-3.9q-.5 0-.825-.325-.325-.325-.325-.825V12.9q0-.5.325-.825.325-.325.825-.325h4.075q.475 0 .812.325.338.325.338.825v.85l.925-.5q.375-.2.763.025.387.225.387.675v1.975q0 .425-.387.662-.388.238-.763.038l-.925-.5v.85q0 .5-.338.825-.337.325-.812.325Z"/></svg>

<svg xmlns="http://www.w3.org/2000/svg" height="24" width="24"><path d="M6.1 22.025Q4.825 22.025 3.925 21.137Q3.025 20.25 3.025 18.95V10.1Q3.025 9.375 3.35 8.725Q3.675 8.075 4.25 7.625L10.15 3.2Q10.975 2.575 12 2.575Q13.025 2.575 13.85 3.2L19.75 7.625Q20.325 8.05 20.65 8.712Q20.975 9.375 20.975 10.1V10.925H13.675Q12.875 10.925 12.288 11.512Q11.7 12.1 11.7 12.9V16.975Q11.7 17.775 12.288 18.362Q12.875 18.95 13.675 18.95H20.975V22.025ZM13.675 18.125Q13.175 18.125 12.85 17.8Q12.525 17.475 12.525 16.975V12.9Q12.525 12.4 12.85 12.075Q13.175 11.75 13.675 11.75H17.75Q18.225 11.75 18.562 12.075Q18.9 12.4 18.9 12.9V13.75L19.825 13.25Q20.2 13.05 20.588 13.275Q20.975 13.5 20.975 13.95V15.925Q20.975 16.35 20.588 16.587Q20.2 16.825 19.825 16.625L18.9 16.125V16.975Q18.9 17.475 18.562 17.8Q18.225 18.125 17.75 18.125Z"/></svg>
